assets/roundtrip_pbt.svg

<?xml version="1.0" encoding="UTF-8" standalone="no"?>
<!DOCTYPE svg PUBLIC "-//W3C//DTD SVG 1.1//EN" "http://www.w3.org/Graphics/SVG/1.1/DTD/svg11.dtd">
<!-- Generated by graphviz version 2.40.1 (20161225.0304)
 -->
<!-- Title: %0 Pages: 1 -->
<svg width="697pt" height="124pt" viewBox="0.00 0.00 696.50 123.93" xmlns="http://www.w3.org/2000/svg" xmlns:xlink="http://www.w3.org/1999/xlink">
<g id="graph0" class="graph" transform="scale(1 1) rotate(0) translate(4 119.9268)">
<title>%0</title>
<polygon fill="#ffffff" stroke="transparent" points="-4,4 -4,-119.9268 692.501,-119.9268 692.501,4 -4,4"/>
<!-- 3a924d98&#45;93d6&#45;4c58&#45;b358&#45;0c569818aa9f -->
<g id="node1" class="node">
<title>3a924d98-93d6-4c58-b358-0c569818aa9f</title>
<path fill="#d3d3d3" stroke="#000000" d="M12,-32.1268C12,-32.1268 296.376,-32.1268 296.376,-32.1268 302.376,-32.1268 308.376,-38.1268 308.376,-44.1268 308.376,-44.1268 308.376,-56.1268 308.376,-56.1268 308.376,-62.1268 302.376,-68.1268 296.376,-68.1268 296.376,-68.1268 12,-68.1268 12,-68.1268 6,-68.1268 0,-62.1268 0,-56.1268 0,-56.1268 0,-44.1268 0,-44.1268 0,-38.1268 6,-32.1268 12,-32.1268"/>
<text text-anchor="middle" x="154.188" y="-46.0268" font-family="Times,serif" font-size="14.00" fill="#000000">3a924d98-93d6-4c58-b358-0c569818aa9f</text>
</g>
<!-- 9400&#45;b382&#45;3a924dc2&#45;c569818aac9&#45;4c82 -->
<g id="node2" class="node">
<title>9400-b382-3a924dc2-c569818aac9-4c82</title>
<path fill="#d3d3d3" stroke="#000000" d="M398.3564,-32.1268C398.3564,-32.1268 676.501,-32.1268 676.501,-32.1268 682.501,-32.1268 688.501,-38.1268 688.501,-44.1268 688.501,-44.1268 688.501,-56.1268 688.501,-56.1268 688.501,-62.1268 682.501,-68.1268 676.501,-68.1268 676.501,-68.1268 398.3564,-68.1268 398.3564,-68.1268 392.3564,-68.1268 386.3564,-62.1268 386.3564,-56.1268 386.3564,-56.1268 386.3564,-44.1268 386.3564,-44.1268 386.3564,-38.1268 392.3564,-32.1268 398.3564,-32.1268"/>
<text text-anchor="middle" x="537.4287" y="-46.0268" font-family="Times,serif" font-size="14.00" fill="#000000">9400-b382-3a924dc2-c569818aac9-4c82</text>
</g>
<!-- 3a924d98&#45;93d6&#45;4c58&#45;b358&#45;0c569818aa9f&#45;&gt;9400&#45;b382&#45;3a924dc2&#45;c569818aac9&#45;4c82 -->
<g id="edge1" class="edge">
<title>3a924d98-93d6-4c58-b358-0c569818aa9f:n-&gt;9400-b382-3a924dc2-c569818aac9-4c82:n</title>
<path fill="none" stroke="#ff0000" stroke-width="1.8" d="M154.188,-68.1268C154.188,-107.6319 484.0398,-110.4867 531.7137,-76.6914"/>
<polygon fill="#ff0000" stroke="#ff0000" stroke-width="1.8" points="534.7895,-78.3877 537.4287,-68.1268 528.9668,-74.5023 534.7895,-78.3877"/>
<text text-anchor="middle" x="347.3662" y="-103.3268" font-family="Times,serif" font-size="14.00" fill="#000000">encrypt</text>
</g>
<!-- 9400&#45;b382&#45;3a924dc2&#45;c569818aac9&#45;4c82&#45;&gt;3a924d98&#45;93d6&#45;4c58&#45;b358&#45;0c569818aa9f -->
<g id="edge2" class="edge">
<title>9400-b382-3a924dc2-c569818aac9-4c82:s-&gt;3a924d98-93d6-4c58-b358-0c569818aa9f:s</title>
<path fill="none" stroke="#0000ff" stroke-width="1.8" d="M537.4287,-32.1268C537.4287,7.3783 207.5769,10.2331 159.903,-23.5622"/>
<polygon fill="#0000ff" stroke="#0000ff" stroke-width="1.8" points="156.8272,-21.8659 154.188,-32.1268 162.6499,-25.7513 156.8272,-21.8659"/>
<text text-anchor="middle" x="347.3662" y="-5.3268" font-family="Times,serif" font-size="14.00" fill="#000000">decrypt</text>
</g>
</g>
</svg>

<svg width="697pt" height="124pt" viewBox="0 0 696.5 123.93" xmlns="http://www.w3.org/2000/svg"><g class="graph" transform="translate(4 119.927)"><path fill="#fff" stroke="transparent" d="M-4 4v-123.927h696.501V4H-4z"/><g class="node"><path fill="#d3d3d3" stroke="#000" d="M12-32.127h284.376c6 0 12-6 12-12v-12c0-6-6-12-12-12H12c-6 0-12 6-12 12v12c0 6 6 12 12 12"/><text text-anchor="middle" x="154.188" y="-46.027" font-family="Times,serif" font-size="14">3a924d98-93d6-4c58-b358-0c569818aa9f</text></g><g class="node"><path fill="#d3d3d3" stroke="#000" d="M398.356-32.127h278.145c6 0 12-6 12-12v-12c0-6-6-12-12-12H398.356c-6 0-12 6-12 12v12c0 6 6 12 12 12"/><text text-anchor="middle" x="537.429" y="-46.027" font-family="Times,serif" font-size="14">9400-b382-3a924dc2-c569818aac9-4c82</text></g><g class="edge"><path fill="none" stroke="red" stroke-width="1.8" d="M154.188-68.127c0-39.505 329.852-42.36 377.526-8.564"/><path fill="red" stroke="red" stroke-width="1.8" d="m534.79-78.388 2.639 10.261-8.462-6.375 5.822-3.886z"/><text text-anchor="middle" x="347.366" y="-103.327" font-family="Times,serif" font-size="14">encrypt</text></g><g class="edge"><path fill="none" stroke="#00f" stroke-width="1.8" d="M537.429-32.127c0 39.505-329.852 42.36-377.526 8.565"/><path fill="#00f" stroke="#00f" stroke-width="1.8" d="m156.827-21.866-2.639-10.26 8.462 6.375-5.823 3.885z"/><text text-anchor="middle" x="347.366" y="-5.327" font-family="Times,serif" font-size="14">decrypt</text></g></g></svg>
